public/payments/crypto/ripple.svg

<svg width="18" height="22" viewBox="0 0 18 22" fill="none" xmlns="http://www.w3.org/2000/svg">
<g clip-path="url(#clip0_168_66)">
<path d="M15.9653 13.4347C15.287 12.9653 14.5044 12.848 13.7218 12.848C13.0957 12.848 12.1044 12.3787 12.1044 11.0293C12.1044 10.56 12.2609 10.0907 12.574 9.73867C12.887 9.38667 13.3044 9.21067 13.7218 9.21067C14.5044 9.152 15.287 9.03467 15.9653 8.624C16.5914 8.21334 17.1131 7.62667 17.4783 6.92267C17.8435 6.21867 18 5.456 18 4.63467C18 3.81334 17.7914 3.05067 17.4783 2.34667C17.1131 1.64267 16.5914 1.056 15.9653 0.645337C15.3392 0.23467 14.6609 0.05867 13.9305 0.05867C13.2001 0.05867 12.5218 0.293337 11.8957 0.645337C11.2696 1.056 10.7479 1.64267 10.3827 2.34667C10.0174 3.05067 9.86092 3.81334 9.80875 4.63467C9.80875 5.51467 10.0696 6.336 10.4348 7.09867C10.7479 7.744 10.9044 8.91734 9.86092 9.62134C9.4957 9.856 9.02614 9.91467 8.60875 9.79734C8.19135 9.68 7.82614 9.38667 7.61744 8.976C7.20005 8.272 6.73048 7.568 6.05222 7.09867C5.42614 6.688 4.74788 6.512 4.01744 6.512C3.28701 6.512 2.60875 6.74667 1.98266 7.09867C1.35657 7.50934 0.834832 8.096 0.469615 8.8C0.104398 9.504 -0.052124 10.2667 -0.052124 11.088C-0.052124 11.9093 0.156572 12.672 0.469615 13.376C0.834832 14.08 1.35657 14.6667 1.98266 15.0773C2.60875 15.488 3.28701 15.664 4.01744 15.664C4.74788 15.664 5.42614 15.4293 6.05222 15.0773C6.73048 14.608 7.25222 13.9627 7.61744 13.2C7.93048 12.6133 8.76527 11.8507 9.80875 12.496C10.174 12.7307 10.4348 13.1413 10.5392 13.6107C10.6435 14.08 10.5914 14.5493 10.3827 15.0187C10.0174 15.7813 9.75657 16.6027 9.75657 17.4827C9.75657 18.304 9.96527 19.0667 10.2783 19.7707C10.6435 20.4747 11.1653 21.0613 11.7914 21.472C12.4174 21.8827 13.0957 22.0587 13.8261 22.0587C14.5566 22.0587 15.2348 21.824 15.8609 21.472C16.487 21.0613 17.0087 20.4747 17.374 19.7707C17.7392 19.0667 17.8957 18.304 17.8957 17.4827C17.8957 16.6613 17.687 15.8987 17.374 15.1947C17.1131 14.3733 16.5914 13.7867 15.9653 13.4347Z" fill="#008CFF"/>
</g>
<defs>
<clipPath id="clip0_168_66">
<rect width="18" height="22" fill="white"/>
</clipPath>
</defs>
</svg>

<svg xmlns="http://www.w3.org/2000/svg" width="18" height="22" fill="none"><g clip-path="url(#a)"><path fill="#008CFF" d="M15.97 13.43a3.82 3.82 0 0 0-2.25-.58c-.62 0-1.62-.47-1.62-1.82 0-.47.16-.94.47-1.3.32-.34.73-.52 1.15-.52a4.95 4.95 0 0 0 2.25-.59 4.5 4.5 0 0 0 1.5-1.7c.37-.7.53-1.46.53-2.29 0-.82-.2-1.58-.52-2.28a4.5 4.5 0 0 0-1.51-1.7 3.6 3.6 0 0 0-2.04-.6c-.73 0-1.4.24-2.03.6a4.5 4.5 0 0 0-1.52 1.7c-.36.7-.52 1.46-.57 2.28 0 .88.26 1.7.62 2.47.32.64.47 1.82-.57 2.52-.36.24-.83.3-1.25.18a1.6 1.6 0 0 1-1-.82c-.41-.7-.88-1.41-1.56-1.88a3.6 3.6 0 0 0-2.03-.59c-.73 0-1.41.24-2.04.59A4.5 4.5 0 0 0 .47 8.8c-.37.7-.52 1.47-.52 2.29 0 .82.2 1.58.52 2.29.36.7.89 1.29 1.51 1.7.63.4 1.3.58 2.04.58.73 0 1.4-.23 2.03-.58a4.73 4.73 0 0 0 1.57-1.88c.31-.59 1.15-1.35 2.19-.7.36.23.62.64.73 1.11.1.47.05.94-.16 1.4a5.7 5.7 0 0 0-.62 2.47c0 .82.2 1.59.52 2.3.36.7.89 1.28 1.51 1.7.63.4 1.3.58 2.04.58.73 0 1.4-.24 2.03-.59a4.5 4.5 0 0 0 1.51-1.7c.37-.7.53-1.47.53-2.29 0-.82-.21-1.58-.53-2.29a3.03 3.03 0 0 0-1.4-1.76Z"/></g><defs><clipPath id="a"><path fill="#fff" d="M0 0h18v22H0z"/></clipPath></defs></svg>
